img/logo-elastomeric-svg.svg

<svg width="73" height="32" viewBox="0 0 73 32" fill="none" xmlns="http://www.w3.org/2000/svg">
<path d="M1.50938 28.5846C24.8365 23.1203 48.1635 23.1203 71.4906 28.5846C72.2619 28.7649 73 28.1847 73 27.3911V1.22661C73 0.432959 72.2619 -0.147253 71.4906 0.0330273C48.1635 5.49738 24.8365 5.49738 1.50938 0.0330273C0.738147 -0.147253 0 0.432959 0 1.22661V27.3911C0 28.1847 0.738147 28.7649 1.50938 28.5846Z" fill="#CE0E2D"/>
<path d="M11.0195 23.1004C9.67248 23.2806 8.32541 23.4754 6.98145 23.6847C6.99902 17.4288 7.01659 11.1739 7.03417 4.91797C8.33678 5.1283 9.64146 5.32515 10.9472 5.50854C10.9451 6.26282 10.943 7.01813 10.941 7.7724C10.1573 7.69055 9.37474 7.60456 8.59214 7.51545C8.58697 9.196 8.58283 10.8765 8.57766 12.5571C9.12869 12.5747 9.67971 12.5913 10.2307 12.6078C10.2287 13.3704 10.2266 14.134 10.2245 14.8966C9.67351 14.8997 9.12248 14.9038 8.57146 14.908C8.56525 16.9708 8.56009 19.0347 8.55388 21.0976C9.37784 21.0085 10.2018 20.9225 11.0268 20.8417C11.0247 21.5949 11.0226 22.3482 11.0206 23.1014L11.0195 23.1004Z" fill="white"/>
<path d="M12.2878 5.69141C12.811 5.76082 13.333 5.82817 13.8562 5.89344C13.8427 10.79 13.8282 15.6856 13.8148 20.5821C14.431 20.5283 15.0481 20.4765 15.6653 20.4278C15.6633 21.1313 15.6612 21.8358 15.6591 22.5393C14.5178 22.6626 13.3775 22.7973 12.2393 22.9424C12.2558 17.192 12.2713 11.4428 12.2878 5.69244V5.69141Z" fill="white"/>
<path d="M19.8454 19.0819C19.2623 19.1119 18.6792 19.143 18.0972 19.1762C18.0124 20.2195 17.9287 21.2649 17.8439 22.3145C17.3198 22.3652 16.7956 22.4181 16.2715 22.473C16.7181 16.9972 17.1637 11.6158 17.6103 6.32031C18.5417 6.41667 19.4743 6.50681 20.4068 6.5897C20.812 11.793 21.2173 16.9226 21.6225 21.9871C21.1087 22.0264 20.5959 22.0679 20.0832 22.1114C20.0046 21.1043 19.926 20.0941 19.8464 19.0819H19.8454ZM18.2771 17.1247C18.7433 17.1102 19.2096 17.0957 19.6759 17.0822C19.4505 14.2402 19.2261 11.3754 19.0008 8.48575C18.7599 11.3412 18.518 14.2205 18.2771 17.1247Z" fill="white"/>
<path d="M24.1893 17.3138C24.1872 18.1737 24.1841 19.0326 24.182 19.8926C24.6256 19.8719 25.0691 19.8532 25.5136 19.8346C25.5177 18.2462 25.5229 16.6589 25.527 15.0706C24.9078 15.0727 24.2896 15.0748 23.6703 15.0768C23.0573 15.081 22.622 14.4552 22.623 13.8055C22.6282 11.895 22.6334 9.98444 22.6396 8.07492C22.6417 7.3165 23.0635 6.80881 23.6931 6.8544C24.487 6.91139 25.281 6.96216 26.075 7.00878C26.6705 7.04401 27.1243 7.58899 27.1222 8.29664C27.1191 9.31719 27.116 10.3388 27.114 11.3593C26.5888 11.3469 26.0626 11.3334 25.5374 11.32C25.5395 10.5046 25.5415 9.69019 25.5446 8.87478C25.1011 8.85406 24.6576 8.8323 24.2141 8.80951C24.21 10.259 24.2058 11.7085 24.2017 13.158C24.8209 13.1663 25.4392 13.1735 26.0584 13.1808C26.6539 13.1891 27.1078 13.7765 27.1057 14.4427C27.1005 16.4362 27.0943 18.4286 27.0891 20.422C27.0871 21.0882 26.6126 21.6716 26.0347 21.7037C25.2407 21.7451 24.4457 21.7928 23.6527 21.8446C23.0924 21.8829 22.6034 21.3338 22.6055 20.6407C22.6086 19.5445 22.6117 18.4493 22.6148 17.3531C23.14 17.3397 23.6651 17.3262 24.1903 17.3138H24.1893Z" fill="white"/>
<path d="M29.3989 9.02097C28.9316 9.00646 28.4644 8.99092 27.9971 8.97331C27.9991 8.35165 28.0002 7.72999 28.0022 7.10938C29.463 7.17983 30.9238 7.23267 32.3846 7.26893C32.3825 7.87816 32.3815 8.48634 32.3794 9.09556C31.9121 9.08624 31.4438 9.07588 30.9765 9.06448C30.9652 13.212 30.9528 17.3584 30.9414 21.5059C30.4152 21.5204 29.889 21.5359 29.3638 21.5546C29.3752 17.3771 29.3876 13.1985 29.3989 9.02097Z" fill="white"/>
<path d="M33.2567 8.50537C33.2588 7.85781 33.7509 7.3004 34.3122 7.30869C35.1073 7.32008 35.9023 7.32733 36.6973 7.32837C37.2938 7.32941 37.7476 7.892 37.7466 8.53853C37.7352 12.4456 37.7249 16.3527 37.7135 20.2598C37.7114 20.9053 37.2369 21.4451 36.658 21.4431C35.863 21.44 35.068 21.4431 34.273 21.4493C33.7116 21.4545 33.2226 20.9157 33.2236 20.2671C33.235 16.3465 33.2453 12.4259 33.2567 8.50537ZM36.1659 9.14153C35.7213 9.13946 35.2768 9.13635 34.8333 9.13221C34.823 12.6311 34.8136 16.1289 34.8033 19.6278C35.2479 19.6258 35.6924 19.6258 36.1359 19.6258C36.1462 16.131 36.1555 12.6352 36.1659 9.1405V9.14153Z" fill="white"/>
<path d="M44.5134 21.6354L44.5072 14.1465L43.2625 21.5535L41.9826 21.5266L40.7379 14.1455L40.7441 21.5017C40.2003 21.4883 39.6565 21.4758 39.1138 21.4676C39.1272 16.7502 39.1406 12.0339 39.1541 7.31659C39.6803 7.31038 40.2706 7.30105 40.7968 7.29069L42.6267 17.3449L44.4793 7.18294C45.0055 7.16222 45.6072 7.13528 46.1334 7.10938C46.12 11.978 46.1055 16.8455 46.092 21.7141C45.5669 21.6862 45.0407 21.6592 44.5144 21.6354H44.5134Z" fill="white"/>
<path d="M51.5516 22.0879C50.1983 21.975 48.845 21.8776 47.4907 21.7937C47.5042 16.8743 47.5186 11.9549 47.5321 7.03453C48.8461 6.96097 50.159 6.87394 51.472 6.77344C51.4699 7.42928 51.4678 8.08513 51.4668 8.74098C50.679 8.78553 49.8912 8.82594 49.1035 8.86324C49.0993 10.2381 49.0952 11.612 49.0921 12.9869C49.6462 12.9817 50.2014 12.9755 50.7555 12.9693C50.7535 13.621 50.7514 14.2716 50.7504 14.9233C50.1962 14.9192 49.6421 14.9151 49.0869 14.9109C49.0818 16.5987 49.0776 18.2865 49.0725 19.9743C49.9016 20.0178 50.7297 20.0655 51.5578 20.1173C51.5557 20.7742 51.5536 21.431 51.5526 22.0879H51.5516Z" fill="white"/>
<path d="M55.6959 15.6583C55.2535 15.65 54.811 15.6428 54.3675 15.6345C54.3613 17.8714 54.3551 20.1073 54.3489 22.3442C53.8247 22.2924 53.3006 22.2437 52.7754 22.1961C52.7899 17.0197 52.8043 11.8445 52.8188 6.66814C53.8971 6.57696 54.9754 6.4775 56.0536 6.36767C56.6481 6.30551 57.0999 6.91162 57.0978 7.66175C57.0926 9.56402 57.0875 11.4663 57.0812 13.3686C57.0792 13.9539 56.8517 14.3974 56.5364 14.5124C57.0068 14.6523 57.2673 15.3112 57.2663 15.8987C57.2601 18.1491 57.2539 20.4005 57.2477 22.6509C56.7246 22.5908 56.2004 22.5338 55.6763 22.4789C55.6825 20.2047 55.6887 17.9315 55.6959 15.6573V15.6583ZM54.3737 13.6017C54.7521 13.5986 55.1315 13.5965 55.5098 13.5934C55.515 11.89 55.5191 10.1867 55.5243 8.48441C55.1459 8.51238 54.7665 8.53829 54.3881 8.56419C54.383 10.2437 54.3788 11.9232 54.3737 13.6027V13.6017Z" fill="white"/>
<path d="M58.6032 6.08988C59.1263 6.02978 59.6505 5.96658 60.1736 5.90234C60.157 11.6019 60.1415 17.3004 60.125 22.9999C59.6019 22.9326 59.0788 22.8663 58.5557 22.8031C58.5712 17.232 58.5867 11.6609 58.6032 6.08988Z" fill="white"/>
<path d="M64.443 10.8084C64.4461 9.76403 64.4492 8.71861 64.4523 7.67423C64.0119 7.72189 63.5704 7.76851 63.129 7.8141C63.1166 12.2455 63.1042 16.6768 63.0918 21.1082C63.5322 21.1559 63.9736 21.2056 64.414 21.2564C64.4171 20.2027 64.4202 19.149 64.4233 18.0963C64.9454 18.1284 65.4664 18.1626 65.9875 18.1968C65.9833 19.5551 65.9802 20.9134 65.9761 22.2717C65.974 23.1327 65.5026 23.7803 64.9289 23.6881C64.1411 23.5648 63.3523 23.4477 62.5635 23.3348C62.0062 23.2529 61.5204 22.5132 61.5235 21.7164C61.5369 16.8851 61.5503 12.0548 61.5648 7.22353C61.5669 6.42781 62.0569 5.66524 62.6141 5.5865C63.404 5.47875 64.1928 5.36478 64.9816 5.24666C65.5729 5.15445 66.0226 5.83516 66.0206 6.69616C66.0164 8.03686 66.0133 9.37653 66.0092 10.7172C65.4881 10.7494 64.9661 10.7794 64.444 10.8094L64.443 10.8084Z" fill="white"/>
<path d="M26.0313 28.5304C26.0044 28.5035 25.9537 28.4662 25.8814 28.4185C25.809 28.3719 25.7211 28.3253 25.6177 28.2807C25.5143 28.2351 25.4017 28.1978 25.2807 28.1657C25.1597 28.1346 25.0367 28.118 24.9106 28.118C24.6883 28.118 24.5219 28.1595 24.4123 28.2413C24.3027 28.3232 24.2479 28.4392 24.2479 28.5884C24.2479 28.6744 24.2686 28.7459 24.3099 28.8029C24.3513 28.8599 24.4102 28.9096 24.4888 28.9531C24.5674 28.9967 24.6656 29.035 24.7845 29.0702C24.9034 29.1054 25.0419 29.1427 25.198 29.1821C25.4017 29.237 25.5857 29.2961 25.7521 29.3582C25.9175 29.4204 26.0592 29.4992 26.175 29.5934C26.2897 29.6877 26.3786 29.7996 26.4417 29.9312C26.5047 30.0628 26.5358 30.2244 26.5358 30.4161C26.5358 30.6389 26.4934 30.8305 26.4096 30.9891C26.3259 31.1476 26.2122 31.2761 26.0695 31.3745C25.9268 31.4729 25.7625 31.5444 25.5774 31.589C25.3913 31.6345 25.197 31.6563 24.9933 31.6563C24.6801 31.6563 24.372 31.6086 24.067 31.5154C23.762 31.4211 23.4881 31.2885 23.2451 31.1155L23.6028 30.4161C23.638 30.4513 23.701 30.498 23.793 30.5539C23.885 30.6109 23.9936 30.6679 24.1187 30.7249C24.2438 30.7818 24.3823 30.8295 24.5353 30.8689C24.6883 30.9082 24.8444 30.9269 25.0047 30.9269C25.4513 30.9269 25.6736 30.7839 25.6736 30.498C25.6736 30.4078 25.6477 30.3311 25.5971 30.269C25.5464 30.2068 25.474 30.1509 25.38 30.1042C25.2859 30.0566 25.1722 30.0141 25.0398 29.9747C24.9065 29.9364 24.7586 29.8929 24.5942 29.8452C24.3947 29.7903 24.2221 29.7302 24.0753 29.666C23.9285 29.6007 23.8065 29.5251 23.7083 29.437C23.6101 29.3489 23.5367 29.2474 23.4881 29.1313C23.4384 29.0163 23.4147 28.8775 23.4147 28.7169C23.4147 28.5055 23.4539 28.317 23.5315 28.1522C23.6101 27.9875 23.7186 27.8507 23.8571 27.7409C23.9957 27.6311 24.1569 27.5482 24.341 27.4912C24.525 27.4342 24.7224 27.4062 24.9333 27.4062C25.2269 27.4062 25.4968 27.4518 25.7428 27.544C25.9889 27.6363 26.2039 27.7451 26.3879 27.8704L26.0302 28.5283L26.0313 28.5304Z" fill="#101820"/>
<path d="M27.5828 27.4385L28.6094 29.4486L29.6536 27.4385H30.5282L29.0147 30.1541V31.6119H28.2114V30.1417L26.7041 27.4375H27.5839L27.5828 27.4385Z" fill="#101820"/>
<path d="M33.3208 28.5304C33.2939 28.5035 33.2433 28.4662 33.1709 28.4185C33.0985 28.3719 33.0107 28.3253 32.9073 28.2807C32.8039 28.2351 32.6912 28.1978 32.5703 28.1657C32.4493 28.1346 32.3263 28.118 32.2002 28.118C31.9779 28.118 31.8114 28.1595 31.7019 28.2413C31.5923 28.3232 31.5375 28.4392 31.5375 28.5884C31.5375 28.6744 31.5582 28.7459 31.5995 28.8029C31.6409 28.8599 31.6998 28.9096 31.7784 28.9531C31.8569 28.9967 31.9551 29.035 32.074 29.0702C32.1929 29.1054 32.3314 29.1427 32.4876 29.1821C32.6912 29.237 32.8752 29.2961 33.0417 29.3582C33.2071 29.4204 33.3487 29.4992 33.4645 29.5934C33.5793 29.6877 33.6682 29.7996 33.7312 29.9312C33.7943 30.0628 33.8253 30.2244 33.8253 30.4161C33.8253 30.6389 33.7829 30.8305 33.6992 30.9891C33.6154 31.1476 33.5017 31.2761 33.3591 31.3745C33.2164 31.4729 33.052 31.5444 32.867 31.589C32.6809 31.6345 32.4865 31.6563 32.2829 31.6563C31.9696 31.6563 31.6615 31.6086 31.3566 31.5154C31.0516 31.4211 30.7776 31.2885 30.5347 31.1155L30.8924 30.4161C30.9275 30.4513 30.9906 30.498 31.0826 30.5539C31.1746 30.6109 31.2832 30.6679 31.4082 30.7249C31.5333 30.7818 31.6719 30.8295 31.8249 30.8689C31.9779 30.9082 32.134 30.9269 32.2942 30.9269C32.7408 30.9269 32.9631 30.7839 32.9631 30.498C32.9631 30.4078 32.9373 30.3311 32.8866 30.269C32.8359 30.2068 32.7636 30.1509 32.6695 30.1042C32.5754 30.0566 32.4617 30.0141 32.3294 29.9747C32.196 29.9364 32.0482 29.8929 31.8838 29.8452C31.6843 29.7903 31.5116 29.7302 31.3648 29.666C31.218 29.6007 31.096 29.5251 30.9978 29.437C30.8996 29.3489 30.8262 29.2474 30.7776 29.1313C30.728 29.0163 30.7042 28.8775 30.7042 28.7169C30.7042 28.5055 30.7435 28.317 30.821 28.1522C30.8996 27.9875 31.0082 27.8507 31.1467 27.7409C31.2852 27.6311 31.4465 27.5482 31.6305 27.4912C31.8145 27.4342 32.012 27.4062 32.2229 27.4062C32.5165 27.4062 32.7863 27.4518 33.0324 27.544C33.2784 27.6363 33.4935 27.7451 33.6775 27.8704L33.3198 28.5283L33.3208 28.5304Z" fill="#101820"/>
<path d="M37.5831 28.1483H36.2515V31.6109H35.4483V28.1483H34.1167V27.4375H37.5831V28.1483Z" fill="#101820"/>
<path d="M40.9687 30.8991V31.6109H38.0771V27.4375H40.916V28.1483H38.8866V29.1533H40.641V29.8122H38.8866V30.8991H40.9687Z" fill="#101820"/>
<path d="M45.1001 31.6109V28.8487L44.027 30.9063H43.5877L42.5146 28.8487V31.6109H41.7051V27.4375H42.5735L43.8048 29.8122L45.0484 27.4375H45.9107V31.6109H45.1012H45.1001Z" fill="#101820"/>
<path d="M49.3223 28.5304C49.2954 28.5035 49.2447 28.4662 49.1724 28.4185C49.1 28.3719 49.0121 28.3253 48.9087 28.2807C48.8054 28.2351 48.6927 28.1978 48.5717 28.1657C48.4508 28.1346 48.3277 28.118 48.2016 28.118C47.9793 28.118 47.8129 28.1595 47.7033 28.2413C47.5937 28.3232 47.5389 28.4392 47.5389 28.5884C47.5389 28.6744 47.5596 28.7459 47.601 28.8029C47.6423 28.8599 47.7012 28.9096 47.7798 28.9531C47.8584 28.9967 47.9566 29.035 48.0755 29.0702C48.1944 29.1054 48.3329 29.1427 48.489 29.1821C48.6927 29.237 48.8767 29.2961 49.0431 29.3582C49.2086 29.4204 49.3502 29.4992 49.466 29.5934C49.5807 29.6877 49.6696 29.7996 49.7327 29.9312C49.7958 30.0628 49.8268 30.2244 49.8268 30.4161C49.8268 30.6389 49.7844 30.8305 49.7007 30.9891C49.6169 31.1476 49.5032 31.2761 49.3605 31.3745C49.2179 31.4729 49.0535 31.5444 48.8684 31.589C48.6823 31.6345 48.488 31.6563 48.2843 31.6563C47.9711 31.6563 47.663 31.6086 47.358 31.5154C47.053 31.4211 46.7791 31.2885 46.5361 31.1155L46.8938 30.4161C46.929 30.4513 46.992 30.498 47.0841 30.5539C47.1761 30.6109 47.2846 30.6679 47.4097 30.7249C47.5348 30.7818 47.6733 30.8295 47.8263 30.8689C47.9793 30.9082 48.1354 30.9269 48.2957 30.9269C48.7423 30.9269 48.9646 30.7839 48.9646 30.498C48.9646 30.4078 48.9387 30.3311 48.8881 30.269C48.8374 30.2068 48.765 30.1509 48.671 30.1042C48.5769 30.0566 48.4632 30.0141 48.3308 29.9747C48.1975 29.9364 48.0496 29.8929 47.8853 29.8452C47.6857 29.7903 47.5131 29.7302 47.3663 29.666C47.2195 29.6007 47.0975 29.5251 46.9993 29.437C46.9011 29.3489 46.8277 29.2474 46.7791 29.1313C46.7295 29.0163 46.7057 28.8775 46.7057 28.7169C46.7057 28.5055 46.745 28.317 46.8225 28.1522C46.9011 27.9875 47.0096 27.8507 47.1482 27.7409C47.2867 27.6311 47.448 27.5482 47.632 27.4912C47.816 27.4342 48.0135 27.4062 48.2244 27.4062C48.518 27.4062 48.7878 27.4518 49.0338 27.544C49.2799 27.6363 49.4949 27.7451 49.6789 27.8704L49.3212 28.5283L49.3223 28.5304Z" fill="#101820"/>
<path d="M70.7534 3.59989C70.6718 3.40925 70.557 3.24451 70.4102 3.10671C70.2634 2.96788 70.0897 2.85909 69.8891 2.77931C69.6886 2.69953 69.4725 2.66016 69.2389 2.66016C69.0052 2.66016 68.7892 2.69953 68.5907 2.77931C68.3922 2.85909 68.2195 2.96788 68.0748 3.10671C67.929 3.24555 67.8163 3.41029 67.7357 3.59989C67.6551 3.79053 67.6147 3.99672 67.6147 4.21948C67.6147 4.44224 67.6551 4.65256 67.7357 4.8432C67.8163 5.03385 67.929 5.19858 68.0748 5.33949C68.2206 5.47937 68.3922 5.58919 68.5907 5.66897C68.7892 5.74875 69.0052 5.78812 69.2389 5.78812C69.4725 5.78812 69.6886 5.74875 69.8891 5.66897C70.0897 5.58919 70.2634 5.4804 70.4102 5.33949C70.557 5.19962 70.6718 5.03385 70.7534 4.8432C70.8351 4.65256 70.8764 4.44431 70.8764 4.21948C70.8764 3.99464 70.8351 3.79053 70.7534 3.59989ZM70.4123 4.72198C70.3471 4.87325 70.2572 5.00276 70.1424 5.11052C70.0287 5.21827 69.8943 5.30219 69.7392 5.36332C69.5842 5.42342 69.4177 5.4545 69.2399 5.4545C69.0621 5.4545 68.8874 5.42342 68.7344 5.36021C68.5803 5.29701 68.448 5.20998 68.3374 5.09808C68.2257 4.98618 68.1389 4.85564 68.0758 4.7054C68.0128 4.55517 67.9818 4.39354 67.9818 4.22051C67.9818 4.04748 68.0138 3.89 68.0758 3.74184C68.1389 3.59368 68.2257 3.46416 68.3374 3.3533C68.449 3.24244 68.5814 3.15644 68.7344 3.09324C68.8874 3.03004 69.0559 2.99896 69.2399 2.99896C69.4239 2.99896 69.5924 3.03004 69.7475 3.09324C69.9026 3.15644 70.036 3.24348 70.1486 3.3533C70.2613 3.46416 70.3502 3.59368 70.4143 3.74391C70.4784 3.89414 70.5105 4.05577 70.5105 4.2288C70.5105 4.40183 70.4774 4.57278 70.4123 4.72405V4.72198Z" fill="white"/>
<path d="M69.5832 4.40951C69.67 4.37532 69.7393 4.31523 69.793 4.22819C69.8458 4.14116 69.8727 4.04895 69.8727 3.94948C69.8727 3.88421 69.8602 3.82101 69.8344 3.75781C69.8096 3.69461 69.7744 3.63866 69.73 3.58789C69.6855 3.53712 69.6318 3.49671 69.5697 3.46459C69.5067 3.43351 69.4395 3.41797 69.3671 3.41797H68.6631V5.00941H69.0063V4.47375H69.2379L69.5697 5.00941H69.9564L69.5842 4.40847L69.5832 4.40951ZM69.4808 4.11837C69.4457 4.15774 69.3981 4.17846 69.3382 4.17846H69.0063V3.72258H69.3309C69.3868 3.72258 69.4343 3.74123 69.4736 3.77853C69.5129 3.81583 69.5336 3.87281 69.5336 3.95052C69.5336 4.02305 69.516 4.079 69.4808 4.11837Z" fill="white"/>
</svg>

<svg width="73" height="32" fill="none" xmlns="http://www.w3.org/2000/svg"><path d="M1.51 28.585c23.326-5.465 46.654-5.465 69.98 0 .772.18 1.51-.4 1.51-1.194V1.227c0-.794-.738-1.374-1.51-1.194-23.326 5.464-46.653 5.464-69.98 0C.737-.147 0 .433 0 1.227V27.39c0 .794.738 1.374 1.51 1.194z" fill="#CE0E2D"/><path d="M11.02 23.1c-1.348.18-2.695.375-4.039.585l.053-18.767c1.303.21 2.607.407 3.913.59l-.006 2.264a253.67 253.67 0 01-2.349-.257l-.014 5.042c.55.018 1.102.034 1.653.05l-.006 2.29-1.654.011c-.006 2.063-.01 4.127-.017 6.19.824-.09 1.648-.175 2.473-.256l-.006 2.26-.002-.002zm1.268-17.409c.523.07 1.045.137 1.568.202l-.041 14.69a189.5 189.5 0 011.85-.155l-.006 2.111c-1.141.124-2.282.258-3.42.403l.049-17.25zm7.557 13.391c-.583.03-1.166.061-1.748.094l-.253 3.139c-.524.05-1.048.103-1.573.158.447-5.476.893-10.857 1.34-16.153.93.097 1.863.187 2.796.27.405 5.203.81 10.333 1.215 15.397-.513.04-1.026.08-1.539.124l-.237-3.03zm-1.568-1.957c.466-.015.933-.03 1.399-.043-.225-2.842-.45-5.707-.675-8.596-.241 2.855-.483 5.734-.724 8.639zm5.913.189l-.008 2.579c.444-.021.887-.04 1.332-.058l.013-4.764-1.857.006c-.613.004-1.048-.622-1.047-1.271.005-1.911.01-3.822.017-5.731.002-.758.424-1.266 1.053-1.22.794.056 1.588.107 2.382.154.596.035 1.05.58 1.047 1.288l-.008 3.062-1.577-.039.008-2.445c-.444-.02-.887-.043-1.33-.065-.005 1.449-.01 2.899-.013 4.348l1.856.023c.596.008 1.05.596 1.048 1.262l-.017 5.979c-.002.666-.476 1.25-1.054 1.282-.794.041-1.59.089-2.382.14-.56.039-1.05-.51-1.047-1.203l.009-3.288 1.575-.04zm5.209-8.293c-.467-.015-.935-.03-1.402-.048l.005-1.864c1.461.07 2.922.124 4.383.16l-.006 1.827c-.467-.01-.935-.02-1.402-.032l-.036 12.442c-.526.014-1.052.03-1.577.049l.035-12.534zm3.858-.516c.002-.647.494-1.205 1.055-1.196.795.011 1.59.018 2.385.02.597 0 1.05.563 1.05 1.21l-.033 11.72c-.003.646-.477 1.186-1.056 1.184-.795-.003-1.59 0-2.385.006-.561.005-1.05-.533-1.05-1.182l.034-11.762zm2.909.637l-1.333-.01-.03 10.496c.445-.002.89-.002 1.333-.002l.03-10.486v.002zm8.347 12.493l-.006-7.489-1.244 7.407-1.28-.026-1.245-7.382.006 7.357c-.544-.014-1.087-.026-1.63-.034l.04-14.151c.526-.007 1.117-.016 1.643-.026l1.83 10.054 1.852-10.162c.526-.02 1.128-.048 1.654-.074l-.041 14.605c-.525-.028-1.051-.055-1.578-.079zm7.039.453c-1.354-.113-2.707-.21-4.061-.294l.041-14.76c1.314-.073 2.627-.16 3.94-.26l-.005 1.967c-.788.045-1.576.085-2.364.122-.004 1.375-.008 2.749-.01 4.124l1.662-.018-.005 1.954-1.663-.012-.015 5.063c.83.044 1.658.091 2.486.143l-.005 1.97h-.001zm4.144-6.43l-1.328-.024-.02 6.71c-.523-.052-1.047-.1-1.573-.148l.044-15.528a186.89 186.89 0 003.235-.3c.594-.062 1.046.544 1.044 1.294-.005 1.902-.01 3.804-.017 5.707-.002.585-.23 1.028-.545 1.143.47.14.731.8.73 1.387l-.018 6.752a157.82 157.82 0 00-1.572-.172l.02-6.822v.001zm-1.322-2.056c.378-.003.758-.005 1.136-.009l.014-5.109c-.378.028-.758.054-1.136.08l-.014 5.039v-.001zm4.229-7.512c.523-.06 1.047-.123 1.57-.188L60.126 23c-.523-.067-1.046-.134-1.57-.197l.048-16.713zm5.84 4.718l.01-3.134c-.441.048-.883.095-1.324.14l-.037 13.294c.44.048.882.098 1.322.148l.01-3.16c.521.032 1.042.067 1.563.1l-.01 4.076c-.003.86-.474 1.508-1.048 1.416a190.03 190.03 0 00-2.366-.353c-.557-.082-1.043-.822-1.04-1.619l.042-14.492c.002-.796.492-1.559 1.05-1.638.789-.107 1.578-.221 2.367-.34.59-.092 1.04.59 1.039 1.45-.005 1.34-.008 2.68-.012 4.021-.52.032-1.043.062-1.565.092h-.001z" fill="#fff"/><path d="M26.031 28.53a1.071 1.071 0 00-.15-.111 1.824 1.824 0 00-.263-.138 2.291 2.291 0 00-.337-.115 1.48 1.48 0 00-.37-.048c-.223 0-.39.042-.499.123a.408.408 0 00-.164.347c0 .086.02.158.062.215.041.057.1.107.179.15.078.044.177.082.296.117.118.035.257.073.413.112.204.055.388.114.554.176a1.5 1.5 0 01.423.235.983.983 0 01.267.338c.063.132.094.293.094.485 0 .223-.043.415-.126.573a1.064 1.064 0 01-.34.386c-.143.098-.308.17-.493.214a2.42 2.42 0 01-.584.067c-.313 0-.621-.047-.926-.14a2.862 2.862 0 01-.822-.4l.358-.7c.035.035.098.082.19.138a2.706 2.706 0 00.742.315c.153.04.31.058.47.058.446 0 .669-.143.669-.429a.352.352 0 00-.077-.229.647.647 0 00-.217-.165 2.07 2.07 0 00-.34-.13l-.446-.129a3.854 3.854 0 01-.519-.179 1.389 1.389 0 01-.367-.229.846.846 0 01-.22-.306 1.044 1.044 0 01-.073-.414c0-.211.039-.4.117-.565.078-.165.187-.301.325-.411.139-.11.3-.193.484-.25.184-.057.381-.085.592-.085.294 0 .564.046.81.138.246.092.46.201.645.326l-.358.658.001.002zm1.552-1.091l1.026 2.01 1.045-2.01h.874l-1.513 2.715v1.458h-.804v-1.47l-1.507-2.704h.88-.001zm5.737 1.091a1.065 1.065 0 00-.15-.111 1.823 1.823 0 00-.263-.138 2.295 2.295 0 00-.337-.115 1.48 1.48 0 00-.37-.048c-.222 0-.389.042-.498.123a.408.408 0 00-.165.347c0 .086.021.158.063.215.04.057.1.107.178.15.079.044.177.082.296.117s.257.073.414.112c.203.055.387.114.554.176.165.062.307.141.422.235a.98.98 0 01.267.338c.063.132.094.293.094.485 0 .223-.042.415-.126.573a1.066 1.066 0 01-.34.386 1.46 1.46 0 01-.492.214 2.45 2.45 0 01-.584.067 3.15 3.15 0 01-.926-.14 2.86 2.86 0 01-.822-.4l.357-.7c.035.035.099.082.19.138a2.867 2.867 0 00.743.315c.153.04.309.058.47.058.446 0 .668-.143.668-.429a.351.351 0 00-.076-.229.646.646 0 00-.218-.165 2.071 2.071 0 00-.34-.13l-.445-.129a3.856 3.856 0 01-.52-.179 1.389 1.389 0 01-.366-.229.846.846 0 01-.22-.306 1.046 1.046 0 01-.074-.414c0-.211.04-.4.117-.565.079-.165.187-.301.326-.411.138-.11.3-.193.484-.25.183-.057.381-.085.592-.085a2.3 2.3 0 01.81.138c.245.092.46.201.645.326l-.358.658v.002zm4.263-.382h-1.331v3.463h-.804v-3.463h-1.331v-.71h3.466v.71zm3.386 2.752v.71h-2.892v-4.172h2.839v.71h-2.03v1.005h1.755v.66h-1.754v1.086h2.082zm4.131.71v-2.76l-1.073 2.057h-.44l-1.072-2.057v2.762h-.81v-4.174h.869l1.23 2.375 1.244-2.375h.863v4.174h-.81zm4.222-3.08a1.071 1.071 0 00-.15-.111 1.824 1.824 0 00-.263-.138 2.287 2.287 0 00-.337-.115 1.479 1.479 0 00-.37-.048c-.223 0-.39.042-.499.123a.408.408 0 00-.164.347c0 .086.02.158.062.215.041.057.1.107.179.15.078.044.177.082.295.117.12.035.258.073.414.112.204.055.388.114.554.176a1.5 1.5 0 01.423.235.983.983 0 01.267.338c.063.132.094.293.094.485 0 .223-.043.415-.126.573a1.065 1.065 0 01-.34.386 1.46 1.46 0 01-.493.214 2.42 2.42 0 01-.584.067c-.313 0-.621-.047-.926-.14a2.862 2.862 0 01-.822-.4l.358-.7c.035.035.098.082.19.138a2.706 2.706 0 00.742.315c.153.04.31.058.47.058.446 0 .669-.143.669-.429a.352.352 0 00-.077-.229.647.647 0 00-.217-.165 2.07 2.07 0 00-.34-.13l-.446-.129a3.85 3.85 0 01-.519-.179 1.389 1.389 0 01-.367-.229.846.846 0 01-.22-.306 1.046 1.046 0 01-.073-.414c0-.211.039-.4.116-.565.08-.165.188-.301.326-.411.139-.11.3-.193.484-.25.184-.057.382-.085.592-.085.294 0 .564.046.81.138.246.092.46.201.645.326l-.358.658.001.002z" fill="#101820"/><path d="M70.753 3.6a1.453 1.453 0 00-.343-.493 1.62 1.62 0 00-.52-.328 1.74 1.74 0 00-.651-.119c-.234 0-.45.04-.648.12-.199.08-.371.188-.516.327a1.463 1.463 0 00-.34.493c-.08.19-.12.397-.12.62 0 .222.04.433.12.623.081.19.194.356.34.496.146.14.317.25.516.33.198.08.414.12.648.12.233 0 .45-.04.65-.12.2-.08.374-.189.521-.33.147-.14.262-.305.343-.496.082-.19.123-.399.123-.624 0-.224-.04-.428-.123-.62zm-.34 1.122a1.15 1.15 0 01-.27.389 1.239 1.239 0 01-.404.252 1.37 1.37 0 01-.5.091c-.177 0-.352-.03-.505-.094a1.18 1.18 0 01-.658-.655 1.24 1.24 0 01-.094-.484 1.22 1.22 0 01.355-.868c.112-.11.244-.197.397-.26.153-.063.322-.094.506-.094s.352.031.508.094a1.205 1.205 0 01.763 1.136c0 .173-.034.344-.099.495v-.002z" fill="#fff"/><path d="M69.583 4.41a.427.427 0 00.21-.182.527.527 0 00-.063-.64.54.54 0 00-.16-.123.45.45 0 00-.203-.047h-.704v1.591h.343v-.535h.232l.332.535h.386l-.372-.6zm-.102-.292a.182.182 0 01-.143.06h-.332v-.455h.325a.2.2 0 01.143.056c.039.037.06.094.06.172a.243.243 0 01-.053.167z" fill="#fff"/></svg>
